web_console_v2/client/src/assets/images/no-result.svg

<svg width="112" height="112" viewBox="0 0 112 112" fill="none" xmlns="http://www.w3.org/2000/svg">
<path d="M97.3977 21.5371H20.3057V85.4102H97.3977V21.5371Z" fill="#D6DAE1"/>
<path d="M34.6392 22.5557L24.8845 65.131C24.3868 67.3477 20.5944 77.1129 18.8027 78.6505L81.0637 92.7591C81.0637 92.7591 84.876 90.9219 87.6431 78.6306L97.3082 36.5744L34.6392 22.5557Z" fill="#EFF2F4"/>
<path d="M44.8518 28.7065C43.4245 28.7065 42.0292 28.282 40.8425 27.4865C39.6557 26.6911 38.7308 25.5605 38.1846 24.2378C37.6384 22.915 37.4955 21.4595 37.7739 20.0553C38.0524 18.651 38.7397 17.3612 39.7489 16.3488C40.7582 15.3364 42.044 14.6469 43.4439 14.3676C44.8437 14.0883 46.2947 14.2317 47.6134 14.7796C48.932 15.3275 50.0591 16.2553 50.852 17.4458C51.645 18.6362 52.0682 20.0358 52.0682 21.4675V21.7571" stroke="#231815" stroke-width="0.73" stroke-miterlimit="10"/>
<path d="M71.08 28.7065C69.6527 28.7065 68.2575 28.282 67.0708 27.4865C65.884 26.6911 64.9591 25.5605 64.4129 24.2378C63.8667 22.915 63.7237 21.4595 64.0022 20.0553C64.2806 18.651 64.9679 17.3612 65.9772 16.3488C66.9864 15.3364 68.2723 14.6469 69.6722 14.3676C71.072 14.0883 72.523 14.2317 73.8417 14.7796C75.1603 15.3275 76.2874 16.2553 77.0803 17.4458C77.8733 18.6362 78.2965 20.0358 78.2965 21.4675V21.7571" stroke="#231815" stroke-width="0.73" stroke-miterlimit="10"/>
<path d="M50.7239 44.7896L41.3401 42.6855L39.5075 50.9098L48.8913 53.0139L50.7239 44.7896Z" fill="white"/>
<path d="M66.8298 48.3961L57.446 46.292L55.6134 54.5162L64.9972 56.6203L66.8298 48.3961Z" fill="white"/>
<path d="M82.4729 51.9058L73.0891 49.8018L71.2565 58.026L80.6403 60.1301L82.4729 51.9058Z" fill="#005DFF"/>
<path d="M79.0691 67.1978L69.6853 65.0938L67.8527 73.318L77.2365 75.4221L79.0691 67.1978Z" fill="white"/>
<path d="M21.0025 99.3488L15.6772 92.8986L50.3264 62.8242L55.6517 69.2844L21.0025 99.3488Z" fill="#FF3640"/>
<path d="M57.6523 58.7811L61.1859 63.0646L62.8781 57.6928L62.6193 57.2734L57.6523 58.7811Z" fill="#FF3640"/>
<path d="M51.4709 60.0983L63.0771 57.2227L58.6974 68.3358" stroke="#231815" stroke-width="1.04" stroke-miterlimit="10"/>
<path d="M45.021 72.9697L13.5471 100.308" stroke="#231815" stroke-width="1.04" stroke-miterlimit="10"/>
</svg>

<svg xmlns="http://www.w3.org/2000/svg" width="112" height="112" fill="none"><path fill="#D6DAE1" d="M97.398 21.537H20.306V85.41h77.092V21.537Z"/><path fill="#EFF2F4" d="M34.64 22.556 24.883 65.13c-.497 2.217-4.29 11.982-6.081 13.52l62.26 14.108s3.813-1.837 6.58-14.128l9.665-42.057L34.64 22.556Z"/><path stroke="#231815" stroke-miterlimit="10" d="M44.852 28.706a7.2 7.2 0 0 1-4.01-1.22 7.234 7.234 0 0 1-2.657-3.248 7.26 7.26 0 0 1 1.564-7.89 7.196 7.196 0 0 1 7.864-1.57 7.22 7.22 0 0 1 3.239 2.668 7.254 7.254 0 0 1 1.216 4.021v.29M71.08 28.706a7.2 7.2 0 0 1-4.01-1.22 7.234 7.234 0 0 1-2.657-3.248 7.26 7.26 0 0 1 1.564-7.89 7.196 7.196 0 0 1 7.865-1.57 7.22 7.22 0 0 1 3.238 2.668 7.254 7.254 0 0 1 1.216 4.021v.29"/><path fill="#fff" d="m50.724 44.79-9.384-2.105-1.833 8.225 9.384 2.104 1.833-8.224ZM66.83 48.396l-9.384-2.104-1.833 8.224 9.384 2.104 1.833-8.224Z"/><path fill="#005DFF" d="m82.473 51.906-9.384-2.104-1.832 8.224 9.383 2.104 1.833-8.224Z"/><path fill="#fff" d="m79.07 67.198-9.385-2.104-1.832 8.224 9.384 2.104 1.832-8.224Z"/><path fill="#FF3640" d="m21.003 99.349-5.326-6.45 34.65-30.075 5.325 6.46-34.65 30.065ZM57.652 58.781l3.534 4.284 1.692-5.372-.259-.42-4.967 1.508Z"/><path stroke="#231815" stroke-miterlimit="10" d="m51.47 60.098 11.607-2.875-4.38 11.113M45.021 72.97l-31.474 27.338"/></svg>
